src/topics/icons/dropmark.svg

<svg height="348" preserveAspectRatio="xMidYMid" viewBox="0 0 256 348" width="256" xmlns="http://www.w3.org/2000/svg"><path d="m128 0s-128 90.667-128 218.667c0 70.857 57.143 128 128 128v.761c70.095-.761 128-57.904 128-128.761 0-128-128-218.667-128-218.667zm0 293.333-68.572-79.238h30.477v-89.905h76.19v89.905h30.476z" fill="#1fc3c4"/><path d="m256 218.667c0-128-128-218.667-128-218.667v124.191h38.095v89.904h30.476l-68.571 79.238v54.096c70.095-.762 128-57.905 128-128.762" fill="#38dedf"/></svg>

<?xml version="1.0" encoding="UTF-8" standalone="no"?>
<svg width="256px" height="348px" viewBox="0 0 256 348" version="1.1" xmlns="http://www.w3.org/2000/svg" xmlns:xlink="http://www.w3.org/1999/xlink" preserveAspectRatio="xMidYMid">
	<g>
		<path d="M128,0 C128,0 0,90.667 0,218.667 C0,289.524 57.143,346.667 128,346.667 L128,347.428 C198.095,346.667 256,289.524 256,218.667 C256,90.667 128,0 128,0 L128,0 Z M128,293.333 L59.428,214.095 L89.905,214.095 L89.905,124.19 L166.095,124.19 L166.095,214.095 L196.571,214.095 L128,293.333 L128,293.333 Z" fill="#1FC3C4"></path>
		<path d="M256,218.667 C256,90.667 128,0 128,0 L128,124.191 L166.095,124.191 L166.095,214.095 L196.571,214.095 L128,293.333 L128,347.429 C198.095,346.667 256,289.524 256,218.667" fill="#38DEDF"></path>
	</g>
</svg>
